icons/grid-fill.svg

<svg xmlns="http://www.w3.org/2000/svg" width="24" height="24" fill="none"><g clip-path="url(#a)"><g><path fill="#121212" d="M14 10V14H10V10H14ZM16 10H21V14H16V10ZM14 21H10V16H14V21ZM16 21V16H21V20C21 20.2652 20.8946 20.5196 20.7071 20.7071C20.5196 20.8946 20.2652 21 20 21H16ZM14 3V8H10V3H14ZM16 3H20C20.2652 3 20.5196 3.10536 20.7071 3.29289C20.8946 3.48043 21 3.73478 21 4V8H16V3ZM8 10V14H3V10H8ZM8 21H4C3.73478 21 3.48043 20.8946 3.29289 20.7071C3.10536 20.5196 3 20.2652 3 20V16H8V21ZM8 3V8H3V4C3 3.73478 3.10536 3.48043 3.29289 3.29289C3.48043 3.10536 3.73478 3 4 3H8Z"/></g></g><defs><clipPath id="a"><rect width="24" height="24" fill="white"/></clipPath></defs></svg>

<svg width="24" height="24" fill="none" xmlns="http://www.w3.org/2000/svg"><g clip-path="url(#a)"><path d="M14 10v4h-4v-4h4Zm2 0h5v4h-5v-4Zm-2 11h-4v-5h4v5Zm2 0v-5h5v4a1 1 0 0 1-1 1h-4ZM14 3v5h-4V3h4Zm2 0h4a1 1 0 0 1 1 1v4h-5V3Zm-8 7v4H3v-4h5Zm0 11H4a1 1 0 0 1-1-1v-4h5v5ZM8 3v5H3V4a1 1 0 0 1 1-1h4Z" /></g><defs><clipPath id="a"><path fill="#fff" d="M0 0h24v24H0z"/></clipPath></defs></svg>
